X: 1
T: da Ferry Reel
C: Trad. Shetland
S: Tom Anderson and Pam Swing, Haand Me Doon Da Fiddle
Z: Jack Campin 2002 <http://www.purr.demon.co.uk/jack/> abcusers 2002-8-7
N: chords added by Jack Campin
M: C|
L: 1/8
K: D
A \
| "D"d2dA d2d2 | "A"efed c2A2 | "G"BcdB "D"ABAF | "Em"G2E2 E3A || "D"d2dA d2d2 | "A"efed c2A2 |
| "G"BcdB "A"AGFE | "D"D2d2 d3 :: e | "D"f2fd fafd | fgag fedf | "A"e2ec e2ec |
| efed cBAg || "D"f2fd fafd | fgag fedf | "Em"efgf "A"edcB | "D"A2d2 d3 :|
